2 Export/Icons/Rounded/1 Player/Mic Off.svg

<svg xmlns="http://www.w3.org/2000/svg" xmlns:xlink="http://www.w3.org/1999/xlink" width="24" height="24" viewBox="0 0 24 24">
  <defs>
    <path id="mic-off-a" d="M14.5825,11.6 L14.5825,6 C14.5825,4.34 13.2425,3 11.5825,3 C10.0425,3 8.7925,4.16 8.6225,5.65 L14.5825,11.6 Z M17.6625,12 C17.2525,12 16.8925,12.3 16.8325,12.71 C16.7825,13.03 16.7125,13.35 16.6125,13.64 L17.8825,14.91 C18.1825,14.31 18.4025,13.66 18.5125,12.97 C18.5825,12.46 18.1825,12 17.6625,12 Z M3.2925,4.56 C2.9025,4.95 2.9025,5.58 3.2925,5.97 L8.5825,11.27 L8.5825,11.7 C8.5825,12.89 9.1825,14.02 10.2125,14.61 C10.9625,15.04 11.6225,15.05 12.2325,14.92 L13.8925,16.58 C13.1825,16.91 12.3925,17.1 11.5825,17.1 C9.0425,17.1 6.7025,15.33 6.3325,12.71 C6.2725,12.3 5.9125,12 5.5025,12 C4.9825,12 4.5825,12.46 4.6525,12.97 C5.1125,15.93 7.6125,18.27 10.5825,18.72 L10.5825,21 C10.5825,21.55 11.0325,22 11.5825,22 C12.1325,22 12.5825,21.55 12.5825,21 L12.5825,18.72 C13.4925,18.59 14.3525,18.27 15.1325,17.82 L18.6225,21.31 C19.0125,21.7 19.6425,21.7 20.0325,21.31 C20.4225,20.92 20.4225,20.29 20.0325,19.9 L4.7025,4.56 C4.3125,4.17 3.6825,4.17 3.2925,4.56 Z"/>
  </defs>
  <g fill="none" fill-rule="evenodd">
    <polygon points="0 0 24 0 24 24 0 24"/>
    <mask id="mic-off-b" fill="#fff">
      <use xlink:href="#mic-off-a"/>
    </mask>
    <use fill="#000" xlink:href="#mic-off-a"/>
    <g fill="#000" mask="url(#mic-off-b)">
      <rect width="24" height="24"/>
    </g>
  </g>
</svg>

<svg xmlns="http://www.w3.org/2000/svg" xmlns:xlink="http://www.w3.org/1999/xlink" width="24" height="24" viewBox="0 0 24 24">
  <defs>
    <path id="mic-off-a" d="M14.582 11.6V6c0-1.66-1.34-3-3-3-1.54 0-2.79 1.16-2.96 2.65l5.96 5.95zm3.08.4c-.41 0-.77.3-.83.71-.05.32-.12.64-.22.93l1.27 1.27c.3-.6.52-1.25.63-1.94a.857.857 0 0 0-.85-.97zM3.293 4.56a.996.996 0 0 0 0 1.41l5.29 5.3v.43c0 1.19.6 2.32 1.63 2.91.75.43 1.41.44 2.02.31l1.66 1.66c-.71.33-1.5.52-2.31.52-2.54 0-4.88-1.77-5.25-4.39a.839.839 0 0 0-.83-.71c-.52 0-.92.46-.85.97.46 2.96 2.96 5.3 5.93 5.75V21c0 .55.45 1 1 1s1-.45 1-1v-2.28a7.13 7.13 0 0 0 2.55-.9l3.49 3.49a.996.996 0 1 0 1.41-1.41L4.702 4.56a.996.996 0 0 0-1.41 0z"/>
  </defs>
  <g fill="none" fill-rule="evenodd">
    <polygon points="0 0 24 0 24 24 0 24"/>
    <mask id="mic-off-b" fill="#fff">
      <use xlink:href="#mic-off-a"/>
    </mask>
    <use fill="#000" xlink:href="#mic-off-a"/>
    <g fill="#000" mask="url(#mic-off-b)">
      <rect width="24" height="24"/>
    </g>
  </g>
</svg>
